SVG_Azure_Grouped/Dynamics 365/Mixed Reality Portal.svg

<?xml version="1.0" encoding="UTF-8" standalone="no"?>
<!-- Generated by Microsoft Visio, SVG Export Mixed Reality Portal.svg Page-1 -->

<svg
   xmlns:dc="http://purl.org/dc/elements/1.1/"
   xmlns:cc="http://creativecommons.org/ns#"
   xmlns:rdf="http://www.w3.org/1999/02/22-rdf-syntax-ns#"
   xmlns:svg="http://www.w3.org/2000/svg"
   xmlns="http://www.w3.org/2000/svg"
   xmlns:sodipodi="http://sodipodi.sourceforge.net/DTD/sodipodi-0.dtd"
   xmlns:inkscape="http://www.inkscape.org/namespaces/inkscape"
   width="0.78736103in"
   height="0.70502114in"
   viewBox="0 0 56.689991 50.761535"
   xml:space="preserve"
   class="st4"
   version="1.1"
   id="svg42"
   sodipodi:docname="Mixed Reality Portal.svg"
   style="font-size:12px;overflow:visible;color-interpolation-filters:sRGB;fill:none;fill-rule:evenodd;stroke-linecap:square;stroke-miterlimit:3"
   inkscape:version="0.92.5 (2060ec1f9f, 2020-04-08)"><metadata
   id="metadata46"><rdf:RDF><cc:Work
       rdf:about=""><dc:format>image/svg+xml</dc:format><dc:type
         rdf:resource="http://purl.org/dc/dcmitype/StillImage" /></cc:Work></rdf:RDF></metadata><sodipodi:namedview
   pagecolor="#ffffff"
   bordercolor="#666666"
   borderopacity="1"
   objecttolerance="10"
   gridtolerance="10"
   guidetolerance="10"
   inkscape:pageopacity="0"
   inkscape:pageshadow="2"
   inkscape:window-width="640"
   inkscape:window-height="480"
   id="namedview44"
   showgrid="false"
   inkscape:zoom="1.9490628"
   inkscape:cx="37.795283"
   inkscape:cy="15.157478"
   inkscape:window-x="0"
   inkscape:window-y="0"
   inkscape:window-maximized="0"
   inkscape:current-layer="svg42" />
	<style
   type="text/css"
   id="style2">
	<![CDATA[
		.st1 {fill:url(#grad0-6);stroke:none;stroke-linecap:butt;stroke-width:6.00949}
		.st2 {fill:url(#grad0-10);stroke:none;stroke-linecap:butt;stroke-width:6.00949}
		.st3 {fill:#0078d4;stroke:none;stroke-linecap:butt;stroke-width:6.00949}
		.st4 {fill:none;fill-rule:evenodd;font-size:12px;overflow:visible;stroke-linecap:square;stroke-miterlimit:3}
	]]>
	</style>

	<defs
   id="Patterns_And_Gradients">
		<linearGradient
   id="grad0-6"
   x1="0.23212592"
   y1="122.43336"
   x2="22.293068"
   y2="122.43336"
   gradientTransform="scale(1.5915178,0.62833103)"
   gradientUnits="userSpaceOnUse">
			<stop
   offset="0"
   stop-color="#22b8f1"
   stop-opacity="1"
   id="stop4" />
			<stop
   offset="1"
   stop-color="#018de1"
   stop-opacity="1"
   id="stop6" />
		</linearGradient>
		<linearGradient
   id="grad0-10"
   x1="0"
   y1="83.611177"
   x2="41.234921"
   y2="83.611177"
   gradientTransform="scale(1.3748056,0.72737556)"
   gradientUnits="userSpaceOnUse">
			<stop
   offset="0"
   stop-color="#50e6ff"
   stop-opacity="1"
   id="stop9" />
			<stop
   offset="0.675"
   stop-color="#0095e6"
   stop-opacity="1"
   id="stop11" />
			<stop
   offset="1"
   stop-color="#0078d4"
   stop-opacity="1"
   id="stop13" />
		</linearGradient>
	</defs>
	<g
   id="g40"
   transform="translate(-6.00949,-6.0130265)">
		<title
   id="title17">Page-1</title>
		<g
   id="group21107-1"
   transform="translate(6.00949,-34.0157)">
			<title
   id="title19">Mixed Reality Portal.21107</title>
			<g
   id="group21108-2">
				<title
   id="title21">g8</title>
				<g
   id="shape21109-3"
   transform="translate(10.3784)">
					<title
   id="title23">path2</title>
					<path
   d="M 1.87,77.47 C 0.65,77.9 0,79.24 0.59,80.37 c 1.43,2.76 3.54,5.15 6.15,6.95 3.26,2.24 7.14,3.45 11.12,3.47 3.98,0.02 7.88,-1.15 11.16,-3.35 2.63,-1.77 4.76,-4.14 6.23,-6.88 0.6,-1.13 -0.03,-2.47 -1.25,-2.92 l -1.13,-0.41 c -1.22,-0.45 -2.57,0.17 -3.23,1.26 -1,1.65 -2.36,3.08 -3.99,4.17 C 23.37,84.2 20.66,85.01 17.89,85 15.12,84.98 12.42,84.14 10.16,82.58 8.54,81.46 7.2,80.03 6.22,78.37 5.57,77.26 4.23,76.63 3.01,77.07 Z"
   class="st1"
   id="path25"
   inkscape:connector-curvature="0"
   style="fill:url(#grad0-6);stroke:none;stroke-width:6.00949001;stroke-linecap:butt" />
				</g>
				<g
   id="shape21110-7"
   transform="translate(0,-20.788)">
					<title
   id="title28">path4</title>
					<path
   d="M 21.49,89.46 25,86.01 c 1.85,-1.8 4.85,-1.8 6.69,0 l 3.52,3.45 c 0.88,0.86 2.09,1.35 3.34,1.35 h 3.97 c 7.83,0 14.17,-6.2 14.17,-13.84 V 68 c 0,-1.62 -0.85,-3.15 -2.37,-3.79 C 45.77,60.58 32.65,60.82 28.35,60.82 24.04,60.82 10.93,60.58 2.37,64.21 0.86,64.85 0,66.38 0,68 v 8.97 c 0,7.64 6.35,13.84 14.17,13.84 h 3.97 c 1.26,0 2.46,-0.49 3.35,-1.35 z"
   class="st2"
   id="path30"
   inkscape:connector-curvature="0"
   style="fill:url(#grad0-10);stroke:none;stroke-width:6.00949001;stroke-linecap:butt" />
				</g>
				<g
   id="shape21111-11"
   transform="translate(23.0312,-41.5547)">
					<title
   id="title33">rect6</title>
					<path
   d="m 0,88.51 a 2.36226,2.30747 -180 0 0 2.36,2.3 H 8.27 A 2.36226,2.30747 -180 0 0 10.63,88.51 2.36226,2.30747 -180 0 0 8.27,86.2 H 2.36 A 2.36226,2.30747 -180 0 0 0,88.51 Z"
   class="st3"
   id="path35"
   inkscape:connector-curvature="0"
   style="fill:#0078d4;stroke:none;stroke-width:6.00949001;stroke-linecap:butt" />
				</g>
			</g>
		</g>
	</g>
</svg>

<?xml version="1.0" encoding="UTF-8" standalone="no"?>
<!DOCTYPE svg PUBLIC "-//W3C//DTD SVG 1.1//EN" "http://www.w3.org/Graphics/SVG/1.1/DTD/svg11.dtd">
<!-- Generated by Microsoft Visio, SVG Export Mixed Reality Portal.svg Page-1 -->
<svg xmlns="http://www.w3.org/2000/svg" xmlns:xlink="http://www.w3.org/1999/xlink" xmlns:ev="http://www.w3.org/2001/xml-events"
		width="0.954332in" height="1.26129in" viewBox="0 0 68.7119 90.8129" xml:space="preserve" color-interpolation-filters="sRGB"
		class="st4">
	<style type="text/css">
	<![CDATA[
		.st1 {fill:url(#grad0-6);stroke:none;stroke-linecap:butt;stroke-width:6.00949}
		.st2 {fill:url(#grad0-10);stroke:none;stroke-linecap:butt;stroke-width:6.00949}
		.st3 {fill:#0078d4;stroke:none;stroke-linecap:butt;stroke-width:6.00949}
		.st4 {fill:none;fill-rule:evenodd;font-size:12px;overflow:visible;stroke-linecap:square;stroke-miterlimit:3}
	]]>
	</style>

	<defs id="Patterns_And_Gradients">
		<linearGradient id="grad0-6" x1="0" y1="0" x2="1" y2="0" gradientTransform="rotate(77.083033141693 0.5 0.5)">
			<stop offset="0" stop-color="#22b8f1" stop-opacity="1"/>
			<stop offset="1" stop-color="#018de1" stop-opacity="1"/>
		</linearGradient>
		<linearGradient id="grad0-10" x1="0" y1="0" x2="1" y2="0" gradientTransform="rotate(68.382556478739 0.5 0.5)">
			<stop offset="0" stop-color="#50e6ff" stop-opacity="1"/>
			<stop offset="0.675" stop-color="#0095e6" stop-opacity="1"/>
			<stop offset="1" stop-color="#0078d4" stop-opacity="1"/>
		</linearGradient>
	</defs>
	<g>
		<title>Page-1</title>
		<g id="group20632-1" transform="translate(6.00949,-34.0157)">
			<title>Mixed Reality Portal.20632</title>
			<g id="group20633-2">
				<title>g8</title>
				<g id="shape20634-3" transform="translate(10.3784,2.55795E-13)">
					<title>path2</title>
					<path d="M1.87 77.47 C0.65 77.9 0 79.24 0.59 80.37 C2.02 83.13 4.13 85.52 6.74 87.32 C10 89.56 13.88 90.77 17.86
								 90.79 C21.84 90.81 25.74 89.64 29.02 87.44 C31.65 85.67 33.78 83.3 35.25 80.56 C35.85 79.43 35.22
								 78.09 34 77.64 L32.87 77.23 C31.65 76.78 30.3 77.4 29.64 78.49 C28.64 80.14 27.28 81.57 25.65 82.66
								 C23.37 84.2 20.66 85.01 17.89 85 C15.12 84.98 12.42 84.14 10.16 82.58 C8.54 81.46 7.2 80.03 6.22
								 78.37 C5.57 77.26 4.23 76.63 3.01 77.07 L1.87 77.47 Z" class="st1"/>
				</g>
				<g id="shape20635-7" transform="translate(0,-20.788)">
					<title>path4</title>
					<path d="M21.49 89.46 L25 86.01 C26.85 84.21 29.85 84.21 31.69 86.01 L35.21 89.46 C36.09 90.32 37.3 90.81 38.55
								 90.81 L42.52 90.81 C50.35 90.81 56.69 84.61 56.69 76.97 L56.69 68 C56.69 66.38 55.84 64.85 54.32
								 64.21 C45.77 60.58 32.65 60.82 28.35 60.82 C24.04 60.82 10.93 60.58 2.37 64.21 C0.86 64.85 0 66.38
								 0 68 L0 76.97 C0 84.61 6.35 90.81 14.17 90.81 L18.14 90.81 C19.4 90.81 20.6 90.32 21.49 89.46 Z"
							class="st2"/>
				</g>
				<g id="shape20636-11" transform="translate(23.0312,-41.5547)">
					<title>rect6</title>
					<path d="M0 88.51 A2.36226 2.30747 -180 0 0 2.36 90.81 L8.27 90.81 A2.36226 2.30747 -180 0 0 10.63 88.51 A2.36226
								 2.30747 -180 0 0 8.27 86.2 L2.36 86.2 A2.36226 2.30747 -180 0 0 0 88.51 Z" class="st3"/>
				</g>
			</g>
		</g>
	</g>
</svg>
